X:1
L:1/8
M:2/4
K:D
 D | (FA) d>B |{B} AF E>D | (FA) d>B | (A2 D>)G | (FA){Bc} d>B | (B/A/) (G/F/) E>D | 
 F>A (B/c/d/B/) | (A2 D) :: A | d>efd |{fg} g>f (ec) | d>e fd |{f} (e2 A) z/ A/ | d>e fd | 
 ge{d} cd/B/ | A>F (B/c/d/)B/ | (A2 D) :|
